X:1
T:Høyt Lyder Bedeklokkens Slag
T:Høit Lyder Bedeklokkens Slag
T:Nedtegnet med siffernoter av Ole Andersen Mærlie (1873)
L:1/8
Q:1/4=70
M:4/4
K:G
V:1 treble nm="Stemme" snm="St."
V:1
"B7" FA |"Em" B2"B7" A2"Em" G2"B7" F2 |"Em" E2"B7" ^D2"Em" E2"B" FG |"Am" A2 A2"Em" B2 B2 | %4
w: Høit *|ly- der Be- de-|klok- kens Slag i *|Af- ten- skum- ring-|
"B" F6 F2 |"Em" B2"B7" A2"Em" G2"B7" F2 |"Em" G2"B7" A2"Em" B2 G2 |"B7" F2"Em" E2"B7" ^D2 F2 | %8
w: en. Og|Bon- den fra en|møi- som Dag til|Hvi- le stun- der|
"Em" E6 B2 |"Bm" d2 d2"Em" B2 G2 |"B" B2 B2"B7" A2 F2 |"Am" A2 A2 A2"Em" B2 |"B" F6"Em" G2 | %13
w: hen. Den|mun- tre Fugl har|Øi- et lukt. Hver|Skab- ning ti- er|nu. Kun|
 E2"B" ^D2"Em" E2"B7" F2 |"Em" G2"B7" A2"Em" B2 G2 |"B7" F2"Em" E2"B7" ^D2 F2 |"Em" E6 |] %17
w: Af- ten- bak- kens|let- te Flugt om-|sirk- ler mig end-|nu.|

